X:185
T:Poor man's lament - Olver
%%VWML:SBG-1-2-181-0
F:http://www.vwml.org/record/SBG/1/2/181
Z:Original Sibelius transcriptions by M. & S. Graebe
M:4/4
I:linebreak $
K:G
V:1 treble nm="P1"
V:1
 E | B A G F | (G F) E ^D | E3/2 E/ F D | B,3 G | G2 G G | A G E ^D | E F G A |$ B2 B A | G A B c | %10
 d B c/B/ A | A3/2 A/ d ^c | B3 B | B G F E |$ c B A G | F2 D F | G F E B, | E F G A | B e d B | %19
 G2 F3/2 E/ | E3 z | %21

